X:1
T:Gossip Joan
M:4/4
L:1/4
K:C
 G| c3/2 G/2 E F| G3 E| F/2F/2 D G, F| F E2| G| A A A F| G3/2- A/2 G E|\
 F F F D| E3/2- F/2 E| c| G c G c|d/2-c/2-B/2-A/2 G F| E2 D2| C3||\
